packages/gestalt-icons-android/vr-theme/ic_vr_heart-health_gestalt.svg

<svg width="24" height="24" viewBox="0 0 24 24" fill="none" xmlns="http://www.w3.org/2000/svg">
<path fill-rule="evenodd" clip-rule="evenodd" d="M6.46974 2C8.00453 2 9.47594 2.54492 10.6325 3.51696C10.9228 3.76098 11.1933 4.03192 11.4399 4.32791L12 5L12.5601 4.32791C12.8067 4.03192 13.0772 3.76098 13.3675 3.51696C14.5241 2.54492 15.9955 2 17.5303 2C21.1034 2 24 4.8966 24 8.46974V9C24 15.1831 15.0276 20.5859 12.9333 21.7628C12.647 21.9237 12.3285 22 12 22C11.6715 22 11.353 21.9237 11.0667 21.7628C8.9724 20.5859 0 15.1831 0 9V8.46974C0 4.8966 2.8966 2 6.46974 2ZM12 8.1241L14.0965 5.60828C14.9457 4.58921 16.2037 4 17.5303 4C19.9988 4 22 6.00117 22 8.46974V9C22 9.65178 21.8526 10.3218 21.5806 11H17.618L16.8572 9.47826C16.296 8.35592 14.6869 8.37766 14.1563 9.51476L12.1087 13.9024L9.83788 7.73875C9.38366 6.50587 7.6763 6.41132 7.08872 7.58649L5.38197 11H2.4194C2.1474 10.3218 2 9.65178 2 9V8.46974C2 6.00117 4.00117 4 6.46974 4C7.79627 4 9.05426 4.58921 9.90348 5.60828L12 8.1241ZM3.55047 13C4.22539 13.9368 5.09175 14.8709 6.09123 15.7769C8.39898 17.8689 10.9732 19.4132 12 19.9931C13.0268 19.4132 15.601 17.8689 17.9088 15.7769C18.9082 14.8709 19.7746 13.9368 20.4495 13H17.309C16.7409 13 16.2215 12.679 15.9674 12.1708L15.5311 11.2982L13.4136 15.8355C12.8498 17.0437 11.1078 16.9709 10.6468 15.7198L8.36073 9.51461L7.03262 12.1708C6.77854 12.679 6.25914 13 5.69098 13H3.55047Z" fill="black"/>
</svg>

<svg xmlns="http://www.w3.org/2000/svg" width="24" height="24"><path d="M6.47 2a6.5 6.5 0 0 1 4.97 2.33L12 5l.56-.67A6.47 6.47 0 0 1 24 8.47V9c0 6.18-8.97 11.59-11.07 12.76Q12.5 22 12 22t-.93-.24C8.97 20.6 0 15.18 0 9v-.53C0 4.9 2.9 2 6.47 2M9.9 5.6A4.47 4.47 0 0 0 2 8.48V9q0 .98.42 2h2.96l1.7-3.41a1.5 1.5 0 0 1 2.76.15l2.27 6.16 2.05-4.39a1.5 1.5 0 0 1 2.7-.03l.76 1.52h3.96Q22 9.98 22 9v-.53a4.47 4.47 0 0 0-7.9-2.86L12 8.12zM3.55 13q1.03 1.41 2.54 2.78A34 34 0 0 0 12 19.99c1.03-.58 3.6-2.12 5.9-4.21q1.52-1.36 2.55-2.78H17.3a1.5 1.5 0 0 1-1.34-.83l-.44-.87-2.12 4.54a1.5 1.5 0 0 1-2.76-.12l-2.29-6.2-1.33 2.65c-.25.5-.77.83-1.34.83z"/></svg>
